src/actions/16/milestone.svg

<svg xmlns="http://www.w3.org/2000/svg" viewBox="0 0 16 16">
  <defs id="defs3051">
    <style type="text/css" id="current-color-scheme">
      .ColorScheme-Text {
        color:#2e3440;
      }
      </style>
  </defs>
 <path style="fill:currentColor;fill-opacity:1;stroke:none" 
     d="M 2 2 L 2 14 L 14 14 L 14 2 L 2 2 z M 3 3 L 13 3 L 13 13 L 3 13 L 3 3 z M 8.0175781 4 L 6.765625 6.6269531 L 4 7.0390625 L 5.9882812 9.09375 L 5.5 11.984375 L 7.9804688 10.626953 L 10.443359 12 L 9.9882812 9.1074219 L 12 7.0664062 L 9.2382812 6.6347656 L 8.0175781 4 z "
     class="ColorScheme-Text"
     />
</svg>

<svg viewBox="0 0 16 16" xmlns="http://www.w3.org/2000/svg">
 <defs>
  <style type="text/css">.ColorScheme-Text {
        color:#2e3440;
      }</style>
 </defs>
 <path class="ColorScheme-Text" d="m2 2v12h12v-12h-12zm1 1h10v10h-10v-10zm5.0176 1-1.252 2.627-2.7656 0.41211 1.9883 2.0547-0.48828 2.8906 2.4805-1.3574 2.4629 1.373-0.45508-2.8926 2.0117-2.041-2.7617-0.43164-1.2207-2.6348z" fill="currentColor"/>
</svg>
